super-ege/img/LOGO.svg

<svg width="118" height="30" viewBox="0 0 118 30" fill="none" xmlns="http://www.w3.org/2000/svg">
<path d="M0.32 0.999998H6.8V23.72H20.84V29H0.32V0.999998ZM37.5519 29.48C34.6452 29.48 32.0185 28.8533 29.6719 27.6C27.3519 26.3467 25.5252 24.6267 24.1919 22.44C22.8852 20.2267 22.2319 17.7467 22.2319 15C22.2319 12.2533 22.8852 9.78667 24.1919 7.6C25.5252 5.38667 27.3519 3.65333 29.6719 2.4C32.0185 1.14667 34.6452 0.52 37.5519 0.52C40.4585 0.52 43.0719 1.14667 45.3919 2.4C47.7119 3.65333 49.5385 5.38667 50.8719 7.6C52.2052 9.78667 52.8719 12.2533 52.8719 15C52.8719 17.7467 52.2052 20.2267 50.8719 22.44C49.5385 24.6267 47.7119 26.3467 45.3919 27.6C43.0719 28.8533 40.4585 29.48 37.5519 29.48ZM37.5519 23.96C39.2052 23.96 40.6985 23.5867 42.0319 22.84C43.3652 22.0667 44.4052 21 45.1519 19.64C45.9252 18.28 46.3119 16.7333 46.3119 15C46.3119 13.2667 45.9252 11.72 45.1519 10.36C44.4052 9 43.3652 7.94667 42.0319 7.2C40.6985 6.42667 39.2052 6.04 37.5519 6.04C35.8985 6.04 34.4052 6.42667 33.0719 7.2C31.7385 7.94667 30.6852 9 29.9119 10.36C29.1652 11.72 28.7919 13.2667 28.7919 15C28.7919 16.7333 29.1652 18.28 29.9119 19.64C30.6852 21 31.7385 22.0667 33.0719 22.84C34.4052 23.5867 35.8985 23.96 37.5519 23.96ZM76.6619 14.56H82.5819V25.92C81.0619 27.0667 79.3019 27.9467 77.3019 28.56C75.3019 29.1733 73.2885 29.48 71.2619 29.48C68.3552 29.48 65.7419 28.8667 63.4219 27.64C61.1019 26.3867 59.2752 24.6667 57.9419 22.48C56.6352 20.2667 55.9819 17.7733 55.9819 15C55.9819 12.2267 56.6352 9.74667 57.9419 7.56C59.2752 5.34667 61.1152 3.62667 63.4619 2.4C65.8085 1.14667 68.4485 0.52 71.3819 0.52C73.8352 0.52 76.0619 0.933332 78.0619 1.76C80.0619 2.58666 81.7419 3.78667 83.1019 5.36L78.9419 9.2C76.9419 7.09333 74.5285 6.04 71.7019 6.04C69.9152 6.04 68.3285 6.41333 66.9419 7.16C65.5552 7.90667 64.4752 8.96 63.7019 10.32C62.9285 11.68 62.5419 13.24 62.5419 15C62.5419 16.7333 62.9285 18.28 63.7019 19.64C64.4752 21 65.5419 22.0667 66.9019 22.84C68.2885 23.5867 69.8619 23.96 71.6219 23.96C73.4885 23.96 75.1685 23.56 76.6619 22.76V14.56ZM102.161 29.48C99.2546 29.48 96.6279 28.8533 94.2813 27.6C91.9613 26.3467 90.1346 24.6267 88.8013 22.44C87.4946 20.2267 86.8413 17.7467 86.8413 15C86.8413 12.2533 87.4946 9.78667 88.8013 7.6C90.1346 5.38667 91.9613 3.65333 94.2813 2.4C96.6279 1.14667 99.2546 0.52 102.161 0.52C105.068 0.52 107.681 1.14667 110.001 2.4C112.321 3.65333 114.148 5.38667 115.481 7.6C116.815 9.78667 117.481 12.2533 117.481 15C117.481 17.7467 116.815 20.2267 115.481 22.44C114.148 24.6267 112.321 26.3467 110.001 27.6C107.681 28.8533 105.068 29.48 102.161 29.48ZM102.161 23.96C103.815 23.96 105.308 23.5867 106.641 22.84C107.975 22.0667 109.015 21 109.761 19.64C110.535 18.28 110.921 16.7333 110.921 15C110.921 13.2667 110.535 11.72 109.761 10.36C109.015 9 107.975 7.94667 106.641 7.2C105.308 6.42667 103.815 6.04 102.161 6.04C100.508 6.04 99.0146 6.42667 97.6813 7.2C96.3479 7.94667 95.2946 9 94.5213 10.36C93.7746 11.72 93.4013 13.2667 93.4013 15C93.4013 16.7333 93.7746 18.28 94.5213 19.64C95.2946 21 96.3479 22.0667 97.6813 22.84C99.0146 23.5867 100.508 23.96 102.161 23.96Z" fill="black"/>
</svg>

<svg width="118" height="30" fill="none" xmlns="http://www.w3.org/2000/svg"><path d="M.32 1H6.8v22.72h14.04V29H.32V1zm37.232 28.48c-2.907 0-5.533-.627-7.88-1.88-2.32-1.253-4.147-2.973-5.48-5.16-1.307-2.213-1.96-4.693-1.96-7.44 0-2.747.653-5.213 1.96-7.4 1.333-2.213 3.16-3.947 5.48-5.2 2.347-1.253 4.973-1.88 7.88-1.88s5.52.627 7.84 1.88c2.32 1.253 4.146 2.987 5.48 5.2 1.333 2.187 2 4.653 2 7.4 0 2.747-.667 5.227-2 7.44-1.334 2.187-3.16 3.907-5.48 5.16-2.32 1.253-4.934 1.88-7.84 1.88zm0-5.52c1.653 0 3.147-.373 4.48-1.12a8.181 8.181 0 0 0 3.12-3.2c.773-1.36 1.16-2.907 1.16-4.64 0-1.733-.387-3.28-1.16-4.64a7.907 7.907 0 0 0-3.12-3.16c-1.333-.773-2.827-1.16-4.48-1.16-1.654 0-3.147.387-4.48 1.16-1.334.747-2.387 1.8-3.16 3.16-.747 1.36-1.12 2.907-1.12 4.64 0 1.733.373 3.28 1.12 4.64a8.467 8.467 0 0 0 3.16 3.2c1.333.747 2.826 1.12 4.48 1.12zm39.11-9.4h5.92v11.36c-1.52 1.147-3.28 2.027-5.28 2.64a20.5 20.5 0 0 1-6.04.92c-2.907 0-5.52-.613-7.84-1.84-2.32-1.253-4.147-2.973-5.48-5.16-1.307-2.213-1.96-4.707-1.96-7.48 0-2.773.653-5.253 1.96-7.44 1.333-2.213 3.173-3.933 5.52-5.16 2.346-1.253 4.986-1.88 7.92-1.88 2.453 0 4.68.413 6.68 1.24s3.68 2.027 5.04 3.6l-4.16 3.84c-2-2.107-4.413-3.16-7.24-3.16-1.787 0-3.373.373-4.76 1.12a8.034 8.034 0 0 0-3.24 3.16c-.773 1.36-1.16 2.92-1.16 4.68 0 1.733.386 3.28 1.16 4.64a8.383 8.383 0 0 0 3.2 3.2c1.386.747 2.96 1.12 4.72 1.12 1.867 0 3.546-.4 5.04-1.2v-8.2zm25.499 14.92c-2.906 0-5.533-.627-7.88-1.88-2.32-1.253-4.146-2.973-5.48-5.16-1.306-2.213-1.96-4.693-1.96-7.44 0-2.747.654-5.213 1.96-7.4 1.334-2.213 3.16-3.947 5.48-5.2 2.347-1.253 4.974-1.88 7.88-1.88 2.907 0 5.52.627 7.84 1.88 2.32 1.253 4.147 2.987 5.48 5.2 1.334 2.187 2 4.653 2 7.4 0 2.747-.666 5.227-2 7.44-1.333 2.187-3.16 3.907-5.48 5.16-2.32 1.253-4.933 1.88-7.84 1.88zm0-5.52c1.654 0 3.147-.373 4.48-1.12a8.172 8.172 0 0 0 3.12-3.2c.774-1.36 1.16-2.907 1.16-4.64 0-1.733-.386-3.28-1.16-4.64a7.899 7.899 0 0 0-3.12-3.16c-1.333-.773-2.826-1.16-4.48-1.16-1.653 0-3.146.387-4.48 1.16-1.333.747-2.386 1.8-3.16 3.16-.746 1.36-1.12 2.907-1.12 4.64 0 1.733.374 3.28 1.12 4.64a8.467 8.467 0 0 0 3.16 3.2c1.334.747 2.827 1.12 4.48 1.12z" fill="#000"/></svg>
